X: 3136
T: DOUN THE BURNIE
Q: "Reel."
R: Reel.
%R: reel
B: James Kerr "Merry Melodies" v.3 p.16 #136
Z: 2016 John Chambers <jc:trillian.mit.edu>
Q:"Reel."
M: C
L: 1/8
K: C
|:\
c2ed c2Gc | d2fe (dc)AB |\
c2ed c2Gc | AcGF (EC)C2 ::\
c2ef g2ec | defg afdB |\
[1 c2ef g2ec | dfed eccG :|\
[2 cede cGEG | FAGF (EC)C2 |]

%%sep 1 1 500
%%sep 1 1 500

